X: 32103
T: Persistence
R: reel
M: 4/4
K: Gmajor
|:G2GA BGAB|GABA GEDE|DEDB, A,G,A,B,|DEGF GABd|
degd egde|gedB AGEG|DGGF GABA|GEDB, A,G,A,B,:|
|:Gdgd fded|Gdgd fded|Gdgd fded|dedB AGED|
Gdgd fded|Gdgd fded|dgbg bc'ba|gedB AGED:|

